X: 13111
T: Firehose, The
R: reel
M: 4/4
K: Gmajor
|G3B dBB2|gBfB eBdB|~G3B dB (3BBB|dBAB GEDE|
G3B dB~B2|gBfB eBdB|~g3e dBge|dged BAGF:|
|:g3a bgg2|abag edBd|g3a bg~g2|aged (3B^cd ef|
~g3a bg~g2|abag edBd|g3e dBge|dged BAGF:|G3||

